docs/images/icons/Visa.svg

<svg width="47" height="16" viewBox="0 0 47 16" fill="none" xmlns="http://www.w3.org/2000/svg">
<path id="Visa" fill-rule="evenodd" clip-rule="evenodd" d="M23.3168 1.05678L20.2498 14.9838H16.5398L19.6098 1.05678H23.3178H23.3168ZM38.9208 10.0488L40.8738 4.81878L41.9968 10.0488H38.9208ZM43.0588 14.9838H46.4888L43.4968 1.05678H40.3298C39.9948 1.05132 39.6657 1.14557 39.3844 1.32754C39.103 1.50951 38.8821 1.771 38.7498 2.07878L33.1858 14.9838H37.0808L37.8538 12.9038H42.6128L43.0588 14.9838ZM33.3788 10.4358C33.3958 6.75978 28.1468 6.55678 28.1828 4.91578C28.1928 4.41578 28.6838 3.88378 29.7558 3.74778C30.2878 3.68078 31.7508 3.62878 33.4128 4.37178L34.0628 1.41878C32.9513 1.01353 31.7778 0.804421 30.5948 0.800781C26.9288 0.800781 24.3488 2.69378 24.3268 5.40478C24.3038 7.40978 26.1678 8.52878 27.5738 9.19478C29.0188 9.87778 29.5038 10.3148 29.4978 10.9248C29.4878 11.8608 28.3448 12.2728 27.2788 12.2888C25.4138 12.3178 24.3318 11.7998 23.4688 11.4088L22.7968 14.4608C23.6628 14.8478 25.2628 15.1838 26.9218 15.2008C30.8178 15.2008 33.3668 13.3308 33.3798 10.4358H33.3788ZM18.0178 1.05678L12.0098 14.9838H8.08876L5.12976 3.86878C4.94976 3.18478 4.79376 2.93378 4.24776 2.64578C3.35776 2.17578 1.88476 1.73578 0.58876 1.46178L0.677761 1.05678H6.98776C7.79176 1.05678 8.51576 1.57678 8.69776 2.47678L10.2608 10.5368L14.1198 1.05678H18.0158H18.0178Z" fill="#C9C9C9"/>
</svg>

<svg width="47" height="16" fill="none" xmlns="http://www.w3.org/2000/svg"><path fill-rule="evenodd" clip-rule="evenodd" d="M23.317 1.057 20.25 14.984h-3.71l3.07-13.927h3.708-.001Zm15.604 8.992 1.953-5.23 1.123 5.23H38.92Zm4.138 4.935h3.43L43.497 1.057H40.33a1.69 1.69 0 0 0-1.58 1.022l-5.564 12.905h3.895l.773-2.08h4.759l.446 2.08Zm-9.68-4.548c.017-3.676-5.232-3.88-5.196-5.52.01-.5.5-1.032 1.573-1.168.532-.067 1.995-.12 3.657.624l.65-2.953A10.216 10.216 0 0 0 30.595.8c-3.666 0-6.246 1.893-6.268 4.604-.023 2.005 1.84 3.124 3.247 3.79 1.445.683 1.93 1.12 1.924 1.73-.01.936-1.153 1.348-2.22 1.364-1.864.029-2.946-.49-3.81-.88l-.671 3.052c.866.387 2.466.723 4.125.74 3.896 0 6.445-1.87 6.458-4.765h-.001Zm-15.361-9.38L12.01 14.985H8.089L5.129 3.869c-.18-.684-.335-.935-.881-1.223-.89-.47-2.363-.91-3.66-1.184l.09-.405h6.31c.804 0 1.528.52 1.71 1.42l1.563 8.06 3.859-9.48h3.898Z" fill="#C9C9C9"/></svg>
